X: 31795
T: Patsy Gardiner's Delight
R: reel
M: 4/4
K: Dmajor
|:de|f2 ef dcAF|G2 AG FDDE|F2 FG AGAc|dfef dcAc|
f2 ef dcAG|[A2D2}GE FDDE|FGAd cdAG|FDEF D2:|
FG|A2 de f2 ge|fedc dAAG|Addc defg|fedc Ad d2|
fedf edcA|dcAG FDFG|AdcA dcAG|FDEF D2||
DE|F2 FE FGAc|dedc AGAc|defg afge|fedc Adde|
f2 df edcA|d2 AG FGAc|dfef dcAG|ADEF D2||

